X:14405
T:Rolfie Harris's Slide
M:6/8
L:1/8
C:Feely/Knowles/Pirie/Whelan
S:From our heads!
O:Marsupial influenced
K:G
GA|:B2BB AG E4 G2| E D2 GB de d4 c|! B2 BB AG E4 G2| E D3 GB 2A G4:||:!
e g4zd B4z| A2 Bc BA B4 d2|! e g4zd B4z | A2 Bc BA G4 G2:|!
